src/svg/36/game_outline_36.svg

<svg fill="none" height="36" viewBox="0 0 36 36" width="36" xmlns="http://www.w3.org/2000/svg"><g fill="currentColor"><path d="m11.2857 13.2857c0-.6904.5597-1.25 1.25-1.25.6904 0 1.25.5596 1.25 1.25v1.5h1.5c.6904 0 1.25.5596 1.25 1.25s-.5596 1.25-1.25 1.25h-1.5v1.5c0 .6904-.5596 1.25-1.25 1.25-.6903 0-1.25-.5596-1.25-1.25v-1.5h-1.49999c-.69035 0-1.25-.5596-1.25-1.25s.55965-1.25 1.25-1.25h1.49999z"/><path d="m19.4657 16.0357c0-.2323 0-.3485.0192-.4451.0789-.3967.389-.7068.7857-.7857.0966-.0192.2128-.0192.4451-.0192s.3485 0 .4451.0192c.3967.0789.7068.389.7857.7857.0192.0966.0192.2128.0192.4451s0 .3485-.0192.4451c-.0789.3967-.389.7068-.7857.7857-.0966.0192-.2128.0192-.4451.0192s-.3485 0-.4451-.0192c-.3967-.0789-.7068-.389-.7857-.7857-.0192-.0966-.0192-.2128-.0192-.4451z"/><path d="m24.4849 15.5906c-.0192.0966-.0192.2128-.0192.4451s0 .3485.0192.4451c.0789.3967.389.7068.7857.7857.0966.0192.2128.0192.4451.0192s.3485 0 .4451-.0192c.3967-.0789.7068-.389.7857-.7857.0192-.0966.0192-.2128.0192-.4451s0-.3485-.0192-.4451c-.0789-.3967-.389-.7068-.7857-.7857-.0966-.0192-.2128-.0192-.4451-.0192s-.3485 0-.4451.0192c-.3967.0789-.7068.389-.7857.7857z"/><path d="m21.9657 13.5357c0-.2323 0-.3485.0192-.4451.0789-.3967.389-.7068.7857-.7857.0966-.0192.2128-.0192.4451-.0192s.3485 0 .4451.0192c.3967.0789.7068.389.7857.7857.0192.0966.0192.2128.0192.4451s0 .3485-.0192.4451c-.0789.3967-.389.7068-.7857.7857-.0966.0192-.2128.0192-.4451.0192s-.3485 0-.4451-.0192c-.3967-.0789-.7068-.389-.7857-.7857-.0192-.0966-.0192-.2128-.0192-.4451z"/><path d="m21.9849 18.0906c-.0192.0966-.0192.2128-.0192.4451s0 .3485.0192.4451c.0789.3967.389.7068.7857.7857.0966.0192.2128.0192.4451.0192s.3485 0 .4451-.0192c.3967-.0789.7068-.389.7857-.7857.0192-.0966.0192-.2128.0192-.4451s0-.3485-.0192-.4451c-.0789-.3967-.389-.7068-.7857-.7857-.0966-.0192-.2128-.0192-.4451-.0192s-.3485 0-.4451.0192c-.3967.0789-.7068.389-.7857.7857z"/><path clip-rule="evenodd" d="m14.0357 6h7.93c4.8253 0 8.0787 2.07665 9.877 5.6731 1.2362 2.4725 1.6587 5.2489 1.6587 8.434 0 5.4887-2.1722 8.9643-5.75 8.9643-1.9309 0-3.1085-.7703-4.8425-2.6158l-.5331-.5668c-1.4054-1.466-2.2404-1.8602-3.6244-1.8602h-1.5014c-1.4498 0-2.2973.4424-3.8292 2.0763l-.5514.5854c-1.6147 1.6763-2.7724 2.3811-4.6194 2.3811-3.57776 0-5.75-3.4756-5.75-8.9643 0-3.1851.4225-5.9615 1.65875-8.434 1.79824-3.59645 5.05166-5.6731 9.87695-5.6731zm7.93 2.53571h-7.93c-6.78838 0-9.0357 4.49459-9.0357 11.60709 0 4.2828 1.36348 6.4643 3.25 6.4643 1.04037 0 1.72265-.4463 3.0205-1.8276l.5594-.5942c1.8413-1.9175 3.1862-2.621 5.4201-2.621h1.5014c2.327 0 3.6893.7719 5.653 2.8665l.5167.5489c1.1768 1.2246 1.842 1.6274 2.8303 1.6274 1.8866 0 3.25-2.1815 3.25-6.4643 0-7.1125-2.2473-11.60709-9.0357-11.60709z" fill-rule="evenodd"/></g></svg>

<svg width="36" height="36" viewBox="0 0 36 36" fill="none" xmlns="http://www.w3.org/2000/svg">
<path fill-rule="evenodd" clip-rule="evenodd" d="M14.0357 6.00002H21.9657C26.791 6.00002 30.0444 8.07667 31.8427 11.6731C33.0789 14.1457 33.5014 16.9221 33.5014 20.1072C33.5014 25.5959 31.3292 29.0714 27.7514 29.0714C25.8205 29.0714 24.6429 28.3011 22.9089 26.4556L22.3758 25.8888C20.9704 24.4228 20.1354 24.0286 18.7514 24.0286H17.25C15.8002 24.0286 14.9527 24.471 13.4208 26.1049L12.8694 26.6903C11.2547 28.3667 10.097 29.0714 8.25 29.0714C4.67224 29.0714 2.5 25.5959 2.5 20.1072C2.5 16.9221 2.9225 14.1457 4.15875 11.6731C5.95699 8.07667 9.21041 6.00002 14.0357 6.00002ZM21.9657 8.53572H14.0357C7.24732 8.53572 5 13.0304 5 20.1429C5 24.4256 6.36348 26.6071 8.25 26.6071C9.29037 26.6071 9.97265 26.1608 11.2705 24.7795L11.8299 24.1853C13.6712 22.2678 15.0161 21.5643 17.25 21.5643H18.7514C21.0784 21.5643 22.4407 22.3362 24.4044 24.4308L24.9211 24.9797C26.0979 26.2043 26.7631 26.6071 27.7514 26.6071C29.638 26.6071 31.0014 24.4256 31.0014 20.1429C31.0014 13.0304 28.7541 8.53572 21.9657 8.53572ZM11.2857 13.2857C11.2857 12.5954 11.8454 12.0357 12.5357 12.0357C13.2261 12.0357 13.7857 12.5954 13.7857 13.2857V14.7857H15.2857C15.9761 14.7857 16.5357 15.3454 16.5357 16.0357C16.5357 16.7261 15.9761 17.2857 15.2857 17.2857H13.7857V18.7857C13.7857 19.4761 13.2261 20.0357 12.5357 20.0357C11.8454 20.0357 11.2857 19.4761 11.2857 18.7857V17.2857H9.78571C9.09536 17.2857 8.53571 16.7261 8.53571 16.0357C8.53571 15.3454 9.09536 14.7857 9.78571 14.7857H11.2857V13.2857ZM19.4657 16.0357C19.4657 15.8034 19.4657 15.6872 19.4849 15.5906C19.5638 15.1939 19.8739 14.8838 20.2706 14.8049C20.3672 14.7857 20.4834 14.7857 20.7157 14.7857C20.948 14.7857 21.0642 14.7857 21.1608 14.8049C21.5575 14.8838 21.8676 15.1939 21.9465 15.5906C21.9657 15.6872 21.9657 15.8034 21.9657 16.0357C21.9657 16.268 21.9657 16.3842 21.9465 16.4808C21.8676 16.8775 21.5575 17.1876 21.1608 17.2665C21.0642 17.2857 20.948 17.2857 20.7157 17.2857C20.4834 17.2857 20.3672 17.2857 20.2706 17.2665C19.8739 17.1876 19.5638 16.8775 19.4849 16.4808C19.4657 16.3842 19.4657 16.268 19.4657 16.0357ZM24.4849 15.5906C24.4657 15.6872 24.4657 15.8034 24.4657 16.0357C24.4657 16.268 24.4657 16.3842 24.4849 16.4808C24.5638 16.8775 24.8739 17.1876 25.2706 17.2665C25.3672 17.2857 25.4834 17.2857 25.7157 17.2857C25.948 17.2857 26.0642 17.2857 26.1608 17.2665C26.5575 17.1876 26.8676 16.8775 26.9465 16.4808C26.9657 16.3842 26.9657 16.268 26.9657 16.0357C26.9657 15.8034 26.9657 15.6872 26.9465 15.5906C26.8676 15.1939 26.5575 14.8838 26.1608 14.8049C26.0642 14.7857 25.948 14.7857 25.7157 14.7857C25.4834 14.7857 25.3672 14.7857 25.2706 14.8049C24.8739 14.8838 24.5638 15.1939 24.4849 15.5906ZM21.9657 13.5357C21.9657 13.3034 21.9657 13.1872 21.9849 13.0906C22.0638 12.6939 22.3739 12.3838 22.7706 12.3049C22.8672 12.2857 22.9834 12.2857 23.2157 12.2857C23.448 12.2857 23.5642 12.2857 23.6608 12.3049C24.0575 12.3838 24.3676 12.6939 24.4465 13.0906C24.4657 13.1872 24.4657 13.3034 24.4657 13.5357C24.4657 13.768 24.4657 13.8842 24.4465 13.9808C24.3676 14.3775 24.0575 14.6876 23.6608 14.7665C23.5642 14.7857 23.448 14.7857 23.2157 14.7857C22.9834 14.7857 22.8672 14.7857 22.7706 14.7665C22.3739 14.6876 22.0638 14.3775 21.9849 13.9808C21.9657 13.8842 21.9657 13.768 21.9657 13.5357ZM21.9849 18.0906C21.9657 18.1872 21.9657 18.3034 21.9657 18.5357C21.9657 18.768 21.9657 18.8842 21.9849 18.9808C22.0638 19.3775 22.3739 19.6876 22.7706 19.7665C22.8672 19.7857 22.9834 19.7857 23.2157 19.7857C23.448 19.7857 23.5642 19.7857 23.6608 19.7665C24.0575 19.6876 24.3676 19.3775 24.4465 18.9808C24.4657 18.8842 24.4657 18.768 24.4657 18.5357C24.4657 18.3034 24.4657 18.1872 24.4465 18.0906C24.3676 17.6939 24.0575 17.3838 23.6608 17.3049C23.5642 17.2857 23.448 17.2857 23.2157 17.2857C22.9834 17.2857 22.8672 17.2857 22.7706 17.3049C22.3739 17.3838 22.0638 17.6939 21.9849 18.0906Z" fill="currentColor"/>
</svg>
